src/assets/logo/mashable.svg

<?xml version="1.0" encoding="UTF-8" standalone="no"?><!DOCTYPE svg PUBLIC "-//W3C//DTD SVG 1.1//EN" "http://www.w3.org/Graphics/SVG/1.1/DTD/svg11.dtd"><svg width="100%" height="100%" viewBox="0 0 540 200" version="1.1" xmlns="http://www.w3.org/2000/svg" xmlns:xlink="http://www.w3.org/1999/xlink" xml:space="preserve" xmlns:serif="http://www.serif.com/" style="fill-rule:evenodd;clip-rule:evenodd;stroke-linejoin:round;stroke-miterlimit:1.41421;"><g id="mashable"><path id="path13736" d="M93.747,141.475l0,-55.86l-21.169,55.86l-9.585,0l-21.307,-55.86l0,55.86l-21.686,0l0,-84.475l30.133,0l17.653,46.611l17.514,-46.611l30.134,0l0,84.475l-21.687,0Z" style="fill:#a0a0a0;fill-rule:nonzero;"/><path id="path13748" d="M158.527,141.476l0,-6.08c-3.775,4.555 -11.102,7.604 -18.911,7.604c-9.326,0 -20.928,-6.461 -20.928,-20.145c0,-14.809 11.602,-19.763 20.928,-19.763c8.068,0 15.257,2.667 18.911,7.223l0,-6.08c0,-5.317 -4.534,-8.989 -12.36,-8.989c-6.051,0 -12.102,2.407 -17.015,6.582l-7.188,-13.546c7.826,-6.72 18.29,-9.492 27.616,-9.492c14.619,0 28.358,5.439 28.358,24.441l0,38.245l-19.411,0Zm0,-15.711l0,-5.438c-2.017,-2.91 -6.55,-4.313 -10.843,-4.313c-5.034,0 -9.705,2.286 -9.705,7.101c0,4.816 4.671,7.085 9.705,7.085c4.293,0 8.826,-1.507 10.843,-4.435" style="fill:#a0a0a0;fill-rule:nonzero;"/><path id="path13752" d="M179.317,133.498l8.068,-13.927c4.534,4.054 14.239,8.228 21.428,8.228c5.792,0 8.188,-1.646 8.188,-4.313c0,-7.587 -35.408,0.26 -35.408,-24.561c0,-10.774 9.326,-20.145 26.082,-20.145c10.343,0 18.911,3.291 25.462,8.106l-7.43,13.805c-3.655,-3.551 -10.585,-6.703 -17.894,-6.703c-4.551,0 -7.568,1.767 -7.568,4.174c0,6.704 35.288,-0.259 35.288,24.822c0,11.657 -10.206,20.006 -27.599,20.006c-10.964,0 -22.187,-3.672 -28.617,-9.492" style="fill:#a0a0a0;fill-rule:nonzero;"/><path id="path13756" d="M279.269,141.476l0,-35.595c0,-7.466 -3.913,-9.873 -10.084,-9.873c-5.672,0 -9.447,3.169 -11.723,5.958l0,39.51l-19.411,0l0,-84.476l19.411,0l0,30.78c3.655,-4.313 10.843,-8.99 21.049,-8.99c13.86,0 20.169,7.847 20.169,19.123l0,43.563l-19.411,0Z" style="fill:#a0a0a0;fill-rule:nonzero;"/><path id="path13760" d="M341.281,141.476l0,-6.08c-3.776,4.555 -11.102,7.604 -18.911,7.604c-9.327,0 -20.928,-6.461 -20.928,-20.145c0,-14.809 11.601,-19.763 20.928,-19.763c8.067,0 15.256,2.667 18.911,7.223l0,-6.08c0,-5.317 -4.534,-8.989 -12.361,-8.989c-6.05,0 -12.101,2.407 -17.014,6.582l-7.189,-13.546c7.827,-6.72 18.29,-9.492 27.617,-9.492c14.618,0 28.357,5.439 28.357,24.441l0,38.245l-19.41,0Zm0,-15.711l0,-5.438c-2.017,-2.91 -6.551,-4.313 -10.844,-4.313c-5.033,0 -9.705,2.286 -9.705,7.101c0,4.816 4.672,7.085 9.705,7.085c4.293,0 8.827,-1.507 10.844,-4.435" style="fill:#a0a0a0;fill-rule:nonzero;"/><path id="path13764" d="M367.363,141.476l0,-84.476l19.411,0l0,30.52c4.792,-6.079 11.343,-8.73 18.031,-8.73c15.257,0 26.841,12.021 26.841,32.045c0,20.768 -11.843,32.165 -26.841,32.165c-6.809,0 -12.98,-2.789 -18.031,-8.609l0,7.085l-19.411,0Zm31.012,-15.711c7.689,0 13.481,-5.698 13.481,-14.93c0,-9.129 -5.792,-14.827 -13.481,-14.827c-4.154,0 -9.205,2.286 -11.601,5.577l0,18.742c2.396,3.291 7.447,5.438 11.601,5.438" style="fill:#a0a0a0;fill-rule:nonzero;"/><rect id="path13766" x="434.42" y="57.002" width="19.411" height="84.475" style="fill:#a0a0a0;fill-rule:nonzero;"/><path id="path13778" d="M456.596,110.825c0,-17.737 13.239,-32.044 32.271,-32.044c18.032,0 31.133,13.303 31.133,34.071l0,4.434l-43.355,0c1.379,5.439 6.43,10.012 15.239,10.012c4.292,0 11.36,-1.906 14.877,-5.197l8.447,12.783c-6.051,5.457 -16.136,8.107 -25.462,8.107c-18.773,0 -33.15,-12.281 -33.15,-32.166m32.271,-16.334c-8.447,0 -11.723,5.058 -12.481,9.492l25.082,0c-0.5,-4.313 -3.654,-9.492 -12.601,-9.492" style="fill:#a0a0a0;fill-rule:nonzero;"/></g></svg>

<?xml version="1.0" encoding="UTF-8" standalone="no"?>
<!DOCTYPE svg PUBLIC "-//W3C//DTD SVG 1.1//EN" "http://www.w3.org/Graphics/SVG/1.1/DTD/svg11.dtd">
<svg width="100%" height="100%" viewBox="0 0 540 200" version="1.1" xmlns="http://www.w3.org/2000/svg" xmlns:xlink="http://www.w3.org/1999/xlink" xml:space="preserve" xmlns:serif="http://www.serif.com/" style="fill-rule:evenodd;clip-rule:evenodd;stroke-linejoin:round;stroke-miterlimit:2;">
    <g id="mashable">
        <path id="path13736" d="M93.747,141.475L93.747,85.615L72.578,141.475L62.993,141.475L41.686,85.615L41.686,141.475L20,141.475L20,57L50.133,57L67.786,103.611L85.3,57L115.434,57L115.434,141.475L93.747,141.475Z" style="fill:rgb(208,208,208);fill-rule:nonzero;"/>
        <path id="path13748" d="M158.527,141.476L158.527,135.396C154.752,139.951 147.425,143 139.616,143C130.29,143 118.688,136.539 118.688,122.855C118.688,108.046 130.29,103.092 139.616,103.092C147.684,103.092 154.873,105.759 158.527,110.315L158.527,104.235C158.527,98.918 153.993,95.246 146.167,95.246C140.116,95.246 134.065,97.653 129.152,101.828L121.964,88.282C129.79,81.562 140.254,78.79 149.58,78.79C164.199,78.79 177.938,84.229 177.938,103.231L177.938,141.476L158.527,141.476ZM158.527,125.765L158.527,120.327C156.51,117.417 151.977,116.014 147.684,116.014C142.65,116.014 137.979,118.3 137.979,123.115C137.979,127.931 142.65,130.2 147.684,130.2C151.977,130.2 156.51,128.693 158.527,125.765" style="fill:rgb(208,208,208);fill-rule:nonzero;"/>
        <path id="path13752" d="M179.317,133.498L187.385,119.571C191.919,123.625 201.624,127.799 208.813,127.799C214.605,127.799 217.001,126.153 217.001,123.486C217.001,115.899 181.593,123.746 181.593,98.925C181.593,88.151 190.919,78.78 207.675,78.78C218.018,78.78 226.586,82.071 233.137,86.886L225.707,100.691C222.052,97.14 215.122,93.988 207.813,93.988C203.262,93.988 200.245,95.755 200.245,98.162C200.245,104.866 235.533,97.903 235.533,122.984C235.533,134.641 225.327,142.99 207.934,142.99C196.97,142.99 185.747,139.318 179.317,133.498" style="fill:rgb(208,208,208);fill-rule:nonzero;"/>
        <path id="path13756" d="M279.269,141.476L279.269,105.881C279.269,98.415 275.356,96.008 269.185,96.008C263.513,96.008 259.738,99.177 257.462,101.966L257.462,141.476L238.051,141.476L238.051,57L257.462,57L257.462,87.78C261.117,83.467 268.305,78.79 278.511,78.79C292.371,78.79 298.68,86.637 298.68,97.913L298.68,141.476L279.269,141.476Z" style="fill:rgb(208,208,208);fill-rule:nonzero;"/>
        <path id="path13760" d="M341.281,141.476L341.281,135.396C337.505,139.951 330.179,143 322.37,143C313.043,143 301.442,136.539 301.442,122.855C301.442,108.046 313.043,103.092 322.37,103.092C330.437,103.092 337.626,105.759 341.281,110.315L341.281,104.235C341.281,98.918 336.747,95.246 328.92,95.246C322.87,95.246 316.819,97.653 311.906,101.828L304.717,88.282C312.544,81.562 323.007,78.79 332.334,78.79C346.952,78.79 360.691,84.229 360.691,103.231L360.691,141.476L341.281,141.476ZM341.281,125.765L341.281,120.327C339.264,117.417 334.73,116.014 330.437,116.014C325.404,116.014 320.732,118.3 320.732,123.115C320.732,127.931 325.404,130.2 330.437,130.2C334.73,130.2 339.264,128.693 341.281,125.765" style="fill:rgb(208,208,208);fill-rule:nonzero;"/>
        <path id="path13764" d="M367.363,141.476L367.363,57L386.774,57L386.774,87.52C391.566,81.441 398.117,78.79 404.805,78.79C420.062,78.79 431.646,90.811 431.646,110.835C431.646,131.603 419.803,143 404.805,143C397.996,143 391.825,140.211 386.774,134.391L386.774,141.476L367.363,141.476ZM398.375,125.765C406.064,125.765 411.856,120.067 411.856,110.835C411.856,101.706 406.064,96.008 398.375,96.008C394.221,96.008 389.17,98.294 386.774,101.585L386.774,120.327C389.17,123.618 394.221,125.765 398.375,125.765" style="fill:rgb(208,208,208);fill-rule:nonzero;"/>
        <rect id="path13766" x="434.42" y="57.002" width="19.411" height="84.475" style="fill:rgb(208,208,208);"/>
        <path id="path13778" d="M456.596,110.825C456.596,93.088 469.835,78.781 488.867,78.781C506.899,78.781 520,92.084 520,112.852L520,117.286L476.645,117.286C478.024,122.725 483.075,127.298 491.884,127.298C496.176,127.298 503.244,125.392 506.761,122.101L515.208,134.884C509.157,140.341 499.072,142.991 489.746,142.991C470.973,142.991 456.596,130.71 456.596,110.825M488.867,94.491C480.42,94.491 477.144,99.549 476.386,103.983L501.468,103.983C500.968,99.67 497.814,94.491 488.867,94.491" style="fill:rgb(208,208,208);fill-rule:nonzero;"/>
    </g>
</svg>
